X:3206
T:A Trip to The Netherlands
P:The Arrival at Paris
C:Astor's 24 Country Dances for the year 1803
R:Reel (8x32)
B:RSCDS 32-6
Z:Anselm Lingnau <anselm@strathspey.org>
M:2/4
L:1/16
K:G
|:Bc|"G"dBdB d2gf|"C"efge "G"d2Bd|"D7"cdcd BdBd|"D"A2D2D2 Bc|
     "G"dBdB d2gf|"C"efge "G"d2Bd|"D7"cd"G"Bd "D7"Aedc|"G"B2"C"G2"G"G2:|
|:AB|"Am"cBAB "D7"cedc|"G"B2G2G2 gf|"Em"gfgf "G"gdBd|"D"A2D2D2 Bc|
     "G"dBdB d2gf|"C"efge "G"d2Bd|"D7"cd"G"Bd "D7"Aedc|"G"B2"C"G2"G"G2:|
